svg/other/bottle_fill.svg

<svg xmlns="http://www.w3.org/2000/svg" width="24" height="24" viewBox="0 0 24 24"><g fill="none" fill-rule="evenodd"><path d="M24,0 L24,24 L0,24 L0,0 L24,0 Z M12.5935,23.2578 L12.5819,23.2595 L12.5109,23.295 L12.4919,23.2987 L12.4767,23.295 L12.4057,23.2595 C12.3958,23.2564 12.387,23.259 12.3821,23.2649 L12.378,23.2758 L12.3609,23.7031 L12.3659,23.7235 L12.3769,23.7357 L12.4805,23.8097 L12.4953,23.8136 L12.5071,23.8097 L12.6107,23.7357 L12.6233,23.7197 L12.6267,23.7031 L12.6096,23.2758 C12.6076,23.2657 12.601,23.2593 12.5935,23.2578 Z M12.8584,23.1453 L12.8445,23.1473 L12.6598,23.2397 L12.6499,23.2499 L12.6472,23.2611 L12.6651,23.6906 L12.6699,23.7034 L12.6784,23.7105 L12.8793,23.8032 C12.8914,23.8069 12.9022,23.803 12.9078,23.7952 L12.9118,23.7812 L12.8777,23.1665 C12.8753,23.1546 12.8674,23.147 12.8584,23.1453 Z M12.143,23.1473 C12.1332,23.1424 12.1222,23.1453 12.1156,23.1526 L12.1099,23.1665 L12.0758,23.7812 C12.0751,23.7927 12.0828,23.8019 12.0926,23.8046 L12.1083,23.8032 L12.3092,23.7105 L12.3186,23.7024 L12.3225,23.6906 L12.3404,23.2611 L12.3372,23.2485 L12.3278,23.2397 L12.143,23.1473 Z"/><path fill="#09244B" d="M9,2 C7.89543,2 7,2.89543 7,4 L7,5 C7,5.37848 7.10513,5.7324 7.28778,6.03416 L5.6,7.3 C4.59278,8.05542 4,9.24097 4,10.5 L4,18 C4,20.2091 5.79086,22 8,22 L16,22 C18.2091,22 20,20.2091 20,18 L20,10.5 C20,9.24097 19.4072,8.05542 18.4,7.3 L16.7122,6.03416 C16.8949,5.7324 17,5.37848 17,5 L17,4 C17,2.89543 16.1046,2 15,2 L9,2 Z M15,5 L15,4 L9,4 L9,5 L15,5 Z M18,13 L6,13 L6,11 L18,11 L18,13 Z M6,15 L18,15 L18,17 L6,17 L6,15 Z"/></g></svg>

<svg xmlns="http://www.w3.org/2000/svg" width="24" height="24"><g fill="none" fill-rule="evenodd"><path d="M24 0v24H0V0zM12.594 23.258l-.012.002-.071.035-.02.004-.014-.004-.071-.036c-.01-.003-.019 0-.024.006l-.004.01-.017.428.005.02.01.013.104.074.015.004.012-.004.104-.074.012-.016.004-.017-.017-.427c-.002-.01-.009-.017-.016-.018m.264-.113-.014.002-.184.093-.01.01-.003.011.018.43.005.012.008.008.201.092c.012.004.023 0 .029-.008l.004-.014-.034-.614c-.003-.012-.01-.02-.02-.022m-.715.002a.023.023 0 0 0-.027.006l-.006.014-.034.614c0 .012.007.02.017.024l.015-.002.201-.093.01-.008.003-.011.018-.43-.003-.012-.01-.01z"/><path fill="#09244B" d="M9 2a2 2 0 0 0-2 2v1c0 .378.105.732.288 1.034L5.6 7.3A4 4 0 0 0 4 10.5V18a4 4 0 0 0 4 4h8a4 4 0 0 0 4-4v-7.5a4 4 0 0 0-1.6-3.2l-1.688-1.266A1.99 1.99 0 0 0 17 5V4a2 2 0 0 0-2-2zm6 3V4H9v1zm3 8H6v-2h12zM6 15h12v2H6z"/></g></svg>
